X: 213
T: No_6_Corn_Dance_Song_(b).krn
N: Derived from No_6_Corn_Dance_Song_(b).krn
%%abc-version 2.0
%%abcx-abcm2ps-target-version 5.9.1 (29 Sep 2008)
%%abc-creator hum2abc beta
%%abcx-conversion-date 2019/03/15 08:38:45
%%humdrum-veritas 14949125
%%humdrum-veritas-data 659025712
%%linebreak <none>
%%barnumbers 0
L: 1/8
M: 2/4
K: Eb clef=bass
[K:clef=bass][M:2/4]z2B,B, | 
B,4 | 
A, zB,2 | 
F,E, E,E, ||  
[M:3/4]E,2E, z A,F, | 
A,3F, A,F, | 
E,D, E,D, E,D, ||  
[M:2/4]E, z E,D, ||  
[M:3/4]E,2D,2B,,2 | 
E,2B,,B,,B,,2 ||  
[M:2/4]B,,2z2 | 
G,F, G,F, | 
F,2F,D, | 
D,D,D,2 ||  
[M:3/4]D,4D,2 ||  
[M:2/4]D,4 | 
D,D,D,2 | 
D,2D,2 ||  
[M:3/4](B,4E,2) ||  
[M:2/4]B,4 | 
z3G, ||  
[M:3/8]B,B,B, ||  
[M:2/4]B,A, A,F, ||  
[M:5/8]A,3F,/ z/ F, ||  
[M:3/8]A,A,A, ||  
[M:3/4]E,D, E,D, E,D, ||  
[M:3/8]E, z3/ E,/ | 
E,G,E, ||  
[M:2/4]E,D, E,B,, | 
B,,2B,,2 | 
E,B,, E,E, | 
B,,2B,,2 | 
B,,2B,,2 | 
B,,3z | 
E,B,, B,,E, | 
B,,2B,, z | 
B,,2B,,2 | 
B,,2B,,2 | 
B,4



